X:177
T:Tobin's Favourite
Z:robin.beech@mcgill.ca
R:jig
S:Laurence Beaudry
M:6/8
L:1/8
K:D
DFA dcd | ecA cde | fef gfg | ecA GFE |
DFA dcd | ecA cde | f/g/af gec | edc d3 ::
dfa agf | efg gfe | f>ff g>gg | ecA GFE |
DFA dcd | ecA cde | f/g/af gec | edc d3 :|
